build/system/ArrowUpOneSolid.svg

<svg xmlns="http://www.w3.org/2000/svg" fill="none" viewBox="0 0 24 24" focusable="false"><path d="M0 0H24V24H0z"/><path fill="#74767B" fill-rule="evenodd" d="M20.5184 12.5463C20.7182 12.6683 20.9867 12.5463 20.9947 12.3123C20.9982 12.2086 21 12.1045 21 12C21 7.02944 16.9706 3 12 3C7.02944 3 3 7.02944 3 12C3 16.9706 7.02944 21 12 21C12.1045 21 12.2086 20.9982 12.3123 20.9947C12.5463 20.9867 12.6683 20.7182 12.5463 20.5184C12.1063 19.7979 11.8191 18.9738 11.7298 18.0913C11.5057 17.9888 11.35 17.7626 11.35 17.5L11.35 9.0995L8.55676 12.0024C8.30785 12.2611 7.89637 12.269 7.63769 12.0201C7.37901 11.7712 7.37109 11.3597 7.62 11.1011L11.5315 7.03594C11.6201 6.94386 11.7293 6.88355 11.8449 6.85529C11.8603 6.85152 11.8759 6.8483 11.8917 6.84566C11.9564 6.83477 12.0226 6.83371 12.0877 6.84253C12.1059 6.84501 12.1241 6.84825 12.1421 6.85227C12.2625 6.8791 12.3766 6.94043 12.4685 7.03596L16.9785 11.7231C17.1503 11.7078 17.3242 11.7 17.5 11.7C18.6057 11.7 19.6391 12.0094 20.5184 12.5463ZM12.65 14.318L12.65 9.09952L15.4948 12.056C14.3215 12.4883 13.3264 13.2891 12.65 14.318ZM22 17.5C22 19.9853 19.9853 22 17.5 22C15.0147 22 13 19.9853 13 17.5C13 15.0147 15.0147 13 17.5 13C19.9853 13 22 15.0147 22 17.5ZM18.2322 15.0862C18.4105 15.2072 18.5173 15.4087 18.5173 15.6241L18.5173 19.3897C18.5173 19.7487 18.2262 20.0397 17.8673 20.0397C17.5083 20.0397 17.2173 19.7487 17.2173 19.3897L17.2173 16.5822L16.2552 16.965C15.9216 17.0977 15.5436 16.9348 15.4109 16.6012C15.2782 16.2677 15.4411 15.8897 15.7746 15.757L17.627 15.0202C17.8272 14.9405 18.0539 14.9653 18.2322 15.0862Z"/></svg>

<svg xmlns="http://www.w3.org/2000/svg" fill="none" viewBox="0 0 24 24" focusable="false"><path fill="#74767B" fill-rule="evenodd" d="M20.51 12.54c.2.12.47 0 .48-.23 0-.11.01-.21.01-.31 0-4.98-4.03-9-9-9-4.98 0-9 4.02-9 9 0 4.97 4.02 9 9 9 .1 0 .2-.01.31-.01.23-.01.35-.28.23-.48-.44-.72-.73-1.54-.81-2.42a.65.65 0 0 1-.38-.59V9.09L8.55 12c-.25.26-.66.26-.92.02a.65.65 0 0 1-.01-.92l3.91-4.07c.09-.09.19-.15.31-.18.02 0 .03-.01.05-.01.06-.01.13-.01.19 0 .02 0 .04 0 .06.01.12.02.23.09.32.18l4.51 4.69c.18-.02.35-.02.53-.02 1.1 0 2.13.3 3.01.84m-7.87 1.77V9.09l2.85 2.96a5.84 5.84 0 0 0-2.85 2.26M22 17.5c0 2.48-2.02 4.5-4.5 4.5a4.5 4.5 0 1 1 4.5-4.5m-3.77-2.42c.18.12.28.32.28.54v3.76c0 .36-.29.65-.65.65s-.65-.29-.65-.65v-2.8l-.96.38a.65.65 0 0 1-.84-.36c-.14-.34.03-.72.36-.85l1.85-.73c.2-.08.43-.06.61.06"/></svg>
